icon-themes/breeze_svg/svx/res/marker-rect9-2.svg

<svg viewBox="0 0 9 9" xmlns="http://www.w3.org/2000/svg"><path d="m1 1v7h7v-7z" fill="#fdbc4b" opacity=".8"/><path d="m0 0v8 1h8 1v-9h-1-7zm1 1h7v7h-7z" fill="#4d4d4d" opacity=".8"/></svg>

<svg viewBox="0 0 9 9" xmlns="http://www.w3.org/2000/svg">
  <path
     d="M 1 1 L 1 8 L 8 8 L 8 1 L 1 1 z "
     style="fill:#fdbc4b;opacity:0.8" />
  <path
     d="M 0 0 L 0 8 L 0 9 L 8 9 L 9 9 L 9 0 L 8 0 L 1 0 L 0 0 z M 1 1 L 8 1 L 8 8 L 1 8 L 1 1 z "
     style="fill:#4d4d4d;opacity:0.8" />
</svg>
